src/static/images/ellipse.svg

<svg xmlns="http://www.w3.org/2000/svg" viewBox="0 0 920 764"><defs><linearGradient id="a" x1="0%" x2="22.495%" y1="97.437%" y2="0%"><stop offset="0%" stop-color="#FF8F5A"/><stop offset="99%" stop-color="#FF2F96"/></linearGradient></defs><path fill-rule="evenodd" fill="#6055C4" d="M395.52 40.407c106.741-50.456 207.474-50.611 291.692-12.736 84.435 37.567 152.356 113.165 198.491 207.114 44.27 94.884 44.223 196.799 8.068 279.242-36.656 83.673-97.666 146.755-180.805 191.777-44.03 22.669-90.312 38.198-149.148 47.731-58.061 9.394-128.676 12.79-203.493 7.944-148.474-9.321-314.876-53.081-349.967-151.789-19.887-49.013-7.404-105.198 17.321-161.74 25.13-56.624 62.502-113.604 101.74-166.115 39.644-52.593 81.154-100.717 123.89-141.529C296.45 99.41 340.817 65.827 395.52 40.407z"/><path fill="url(#a)" d="M395.52 40.407c106.741-50.456 207.474-50.611 291.692-12.736 84.435 37.567 152.356 113.165 198.491 207.114 44.27 94.884 44.223 196.799 8.068 279.242-36.656 83.673-97.666 146.755-180.805 191.777-44.03 22.669-90.312 38.198-149.148 47.731-58.061 9.394-128.676 12.79-203.493 7.944-148.474-9.321-314.876-53.081-349.967-151.789-19.887-49.013-7.404-105.198 17.321-161.74 25.13-56.624 62.502-113.604 101.74-166.115 39.644-52.593 81.154-100.717 123.89-141.529C296.45 99.41 340.817 65.827 395.52 40.407z"/></svg>

<svg xmlns="http://www.w3.org/2000/svg" xmlns:xlink="http://www.w3.org/1999/xlink" viewBox="0 0 920 764">
    <defs>
        <linearGradient id="grad_2" x1="0%" x2="22.495%" y1="97.437%" y2="0%">
            <stop offset="0%" stop-color="rgb(255,143,90)" stop-opacity="1" />
            <stop offset="99%" stop-color="rgb(255,47,150)" stop-opacity="1" />
        </linearGradient>
    </defs>
    <path fill-rule="evenodd" fill="rgb(96, 85, 196)" d="M395.520,40.407 C502.261,-10.049 602.994,-10.204 687.212,27.671 C771.647,65.238 839.568,140.836 885.703,234.785 C929.973,329.669 929.926,431.584 893.771,514.027 C857.115,597.700 796.105,660.782 712.966,705.804 C668.936,728.473 622.654,744.002 563.818,753.535 C505.757,762.929 435.142,766.325 360.325,761.479 C211.851,752.158 45.449,708.398 10.358,609.690 C-9.529,560.677 2.954,504.492 27.679,447.950 C52.809,391.326 90.181,334.346 129.419,281.835 C169.063,229.242 210.573,181.118 253.309,140.306 C296.450,99.410 340.817,65.827 395.520,40.407 L395.520,40.407 Z"/>
    <path fill="url(#grad_2)" d="M395.520,40.407 C502.261,-10.049 602.994,-10.204 687.212,27.671 C771.647,65.238 839.568,140.836 885.703,234.785 C929.973,329.669 929.926,431.584 893.771,514.027 C857.115,597.700 796.105,660.782 712.966,705.804 C668.936,728.473 622.654,744.002 563.818,753.535 C505.757,762.929 435.142,766.325 360.325,761.479 C211.851,752.158 45.449,708.398 10.358,609.690 C-9.529,560.677 2.954,504.492 27.679,447.950 C52.809,391.326 90.181,334.346 129.419,281.835 C169.063,229.242 210.573,181.118 253.309,140.306 C296.450,99.410 340.817,65.827 395.520,40.407 L395.520,40.407 Z"/>
</svg>
